src/Pure/16/symbolic/actions/view-tasks-all-symbolic.svg

<?xml version="1.0" encoding="UTF-8"?>
<svg width="16" height="16" version="1.1" xmlns="http://www.w3.org/2000/svg" xmlns:cc="http://creativecommons.org/ns#" xmlns:dc="http://purl.org/dc/elements/1.1/" xmlns:rdf="http://www.w3.org/1999/02/22-rdf-syntax-ns#">
 <metadata>
  <rdf:RDF>
   <cc:Work rdf:about="">
    <dc:format>image/svg+xml</dc:format>
    <dc:type rdf:resource="http://purl.org/dc/dcmitype/StillImage"/>
    <dc:title>Gnome Symbolic Icon Theme</dc:title>
   </cc:Work>
  </rdf:RDF>
 </metadata>
 <title>Gnome Symbolic Icon Theme</title>
 <g fill="#363636" stroke-linecap="round" stroke-linejoin="round">
  <path d="m3 1c-1.108 0-2 0.892-2 2v2c0 1.108 0.892 2 2 2h2c1.108 0 2-0.892 2-2v-2c0-1.108-0.892-2-2-2h-2zm0 1h2c0.554 0 1 0.446 1 1v2c0 0.554-0.446 1-1 1h-2c-0.554 0-1-0.446-1-1v-2c0-0.554 0.446-1 1-1z" style="paint-order:stroke fill markers"/>
  <path d="m11 1c-1.108 0-2 0.892-2 2v2c0 1.108 0.892 2 2 2h2c1.108 0 2-0.892 2-2v-2c0-1.108-0.892-2-2-2zm0 1h2c0.554 0 1 0.446 1 1v2c0 0.554-0.446 1-1 1h-2c-0.554 0-1-0.446-1-1v-2c0-0.554 0.446-1 1-1z" style="paint-order:stroke fill markers"/>
  <path d="m3 9c-1.108 0-2 0.892-2 2v2c0 1.108 0.892 2 2 2h2c1.108 0 2-0.892 2-2v-2c0-1.108-0.892-2-2-2zm0 1h2c0.554 0 1 0.446 1 1v2c0 0.554-0.446 1-1 1h-2c-0.554 0-1-0.446-1-1v-2c0-0.554 0.446-1 1-1z" style="paint-order:stroke fill markers"/>
  <path d="m11 9c-1.108 0-2 0.892-2 2v2c0 1.108 0.892 2 2 2h2c1.108 0 2-0.892 2-2v-2c0-1.108-0.892-2-2-2zm0 1h2c0.554 0 1 0.446 1 1v2c0 0.554-0.446 1-1 1h-2c-0.554 0-1-0.446-1-1v-2c0-0.554 0.446-1 1-1z" style="paint-order:stroke fill markers"/>
 </g>
</svg>

<?xml version="1.0" encoding="UTF-8" standalone="no"?>
<svg
   width="16"
   height="16"
   version="1.1"
   id="svg4"
   sodipodi:docname="view-tasks-all-symbolic.svg"
   inkscape:version="1.4.2 (ebf0e940d0, 2025-05-08)"
   xmlns:inkscape="http://www.inkscape.org/namespaces/inkscape"
   xmlns:sodipodi="http://sodipodi.sourceforge.net/DTD/sodipodi-0.dtd"
   xmlns="http://www.w3.org/2000/svg"
   xmlns:svg="http://www.w3.org/2000/svg"
   xmlns:rdf="http://www.w3.org/1999/02/22-rdf-syntax-ns#"
   xmlns:cc="http://creativecommons.org/ns#"
   xmlns:dc="http://purl.org/dc/elements/1.1/">
  <defs
     id="defs4">
    <style
       id="current-color-scheme"
       type="text/css">
        .ColorScheme-Text { color:#363636; }
     </style>
  </defs>
  <sodipodi:namedview
     id="namedview4"
     pagecolor="#ffffff"
     bordercolor="#000000"
     borderopacity="0.25"
     inkscape:showpageshadow="2"
     inkscape:pageopacity="0.0"
     inkscape:pagecheckerboard="0"
     inkscape:deskcolor="#d1d1d1"
     inkscape:zoom="49.6875"
     inkscape:cx="8"
     inkscape:cy="8"
     inkscape:window-width="1920"
     inkscape:window-height="1010"
     inkscape:window-x="0"
     inkscape:window-y="0"
     inkscape:window-maximized="1"
     inkscape:current-layer="svg4" />
  <metadata
     id="metadata1">
    <rdf:RDF>
      <cc:Work
         rdf:about="">
        <dc:format>image/svg+xml</dc:format>
        <dc:type
           rdf:resource="http://purl.org/dc/dcmitype/StillImage" />
        <dc:title>Gnome Symbolic Icon Theme</dc:title>
      </cc:Work>
    </rdf:RDF>
  </metadata>
  <title
     id="title1">Gnome Symbolic Icon Theme</title>
  <path
     id="path1"
     style="fill:currentColor;fill-opacity:1"
     class="ColorScheme-Text"
     d="M 3 1 C 1.892 1 1 1.892 1 3 L 1 5 C 1 6.108 1.892 7 3 7 L 5 7 C 6.108 7 7 6.108 7 5 L 7 3 C 7 1.892 6.108 1 5 1 L 3 1 z M 11 1 C 9.892 1 9 1.892 9 3 L 9 5 C 9 6.108 9.892 7 11 7 L 13 7 C 14.108 7 15 6.108 15 5 L 15 3 C 15 1.892 14.108 1 13 1 L 11 1 z M 3 2 L 5 2 C 5.554 2 6 2.446 6 3 L 6 5 C 6 5.554 5.554 6 5 6 L 3 6 C 2.446 6 2 5.554 2 5 L 2 3 C 2 2.446 2.446 2 3 2 z M 11 2 L 13 2 C 13.554 2 14 2.446 14 3 L 14 5 C 14 5.554 13.554 6 13 6 L 11 6 C 10.446 6 10 5.554 10 5 L 10 3 C 10 2.446 10.446 2 11 2 z M 3 9 C 1.892 9 1 9.892 1 11 L 1 13 C 1 14.108 1.892 15 3 15 L 5 15 C 6.108 15 7 14.108 7 13 L 7 11 C 7 9.892 6.108 9 5 9 L 3 9 z M 11 9 C 9.892 9 9 9.892 9 11 L 9 13 C 9 14.108 9.892 15 11 15 L 13 15 C 14.108 15 15 14.108 15 13 L 15 11 C 15 9.892 14.108 9 13 9 L 11 9 z M 3 10 L 5 10 C 5.554 10 6 10.446 6 11 L 6 13 C 6 13.554 5.554 14 5 14 L 3 14 C 2.446 14 2 13.554 2 13 L 2 11 C 2 10.446 2.446 10 3 10 z M 11 10 L 13 10 C 13.554 10 14 10.446 14 11 L 14 13 C 14 13.554 13.554 14 13 14 L 11 14 C 10.446 14 10 13.554 10 13 L 10 11 C 10 10.446 10.446 10 11 10 z " />
</svg>
